X:1
T:Is Your Lamp Burning?
T:Is Your Lamp Burning?
T:Charlie C. Williams
T:Ellen Maria Huntington Gates, 1881, alt.
T:Public Domain Courtesy of the Cyber Hymnal™
T:Public Domain Courtesy of the Cyber Hymnal™
C:Charlie C. Williams
Z:Public Domain
Z:Courtesy of the Cyber Hymnal™
%%score ( 1 2 ) ( 3 4 )
L:1/8
Q:1/4=85
M:6/8
K:G
V:1 treble 
V:2 treble 
V:3 bass 
V:4 bass 
V:1
 [B,D] | [DB][CA][B,G] [EG][DF][CE] | [B,D] [B,G]4 ([B,D]/[B,D]/) | [Dc][DB][DA] [DA][DG][DA] | %4
w: 1.~Say,|is your lamp burn- ing, my|bro- ther? I *|pray you look quick- ly and|
w: 2.~Up-|on the dark mount- ains they|stum- ble, They~are *|bruised on the rocks, and they|
w: 3.~If|once all the lamps that are|light- ed Should *|stead- i- ly blaze in a|
 [DB]3- [DB]2 D | [Gd][Dc][DB] [DB][CA][B,G] | [DF] [CE]4 ([CE]/[CE]/) | %7
w: see; * For|if it were burn- ing, then|sure- ly Some *|
w: lie * With|tear- filled eyes turned plead- ing|up- ward, To~the *|
w: line, * Wide|o- ver the land and the|o- cean, What~a *|
 [B,D][B,G][DB] [CA][DB][CA] | [B,G]3- [B,G]2 ([B,G]/[B,G]/) | [Ec][Ec][Ec] [Ec][Ec][Ec] | %10
w: beam would fall bright- ly on|me. * There~are *|ma- ny and ma- ny a-|
w: clouds and the pi- ti- ful|sky. * There~is *|ma- ny a lamp that is|
w: gir- dle of glo- ry would|shine! * How *|all the dark plac- es would|
 [DB] [DB]4 ([GB]/[GB]/) | [FA][FA][FA] [E^c][Ec][Ge] | [Fd]3- [Fd]2 [Fc]/[Fc]/ | %13
w: round you Who *|fol- low wher- ev- er you|go; * If you|
w: light- ed— We~be- *|hold them a- near and a-|far; * But not|
w: bright- en! How~the *|mists would roll up and a-|way! * How the|
 [GB][DB][DB] [DB][CA][B,G] | [DF] [CE]4 [CE] | [B,D][B,G][DB] [Dd][DA][DB] | [DG]3- [DG]2 || %17
w: thought that they walked in the|sha- dow, Your|lamp would burn bright- er, I|know. *|
w: ma- ny a- mong them, my|bro- ther, Shine|stead- i- ly on like a|star. *|
w: earth would laugh out in her|glad- ness, To|hail the mil- len- ni- al|day! *|
"^Refrain" ([B,G]/[B,G]/) | [Ec][Ec][Ec] [Ec][Ec][Ec] | [DB] [DB]4 ([GB]/[GB]/) | %20
w: |||
w: Say, *|is your lamp burn- ing, my|bro- ther? I *|
w: |||
 [FA][FA][FA] [E^c][Ec][Ge] | [Fd]3- [Fd]2 ([Fc]/[Fc]/) | [GB][DB][DB] [DB][CA][B,G] | %23
w: |||
w: pray you look quick- ly and|see; * For *|if it were burn- ing, then|
w: |||
 [DF] [CE]4 [CE] | [B,D][B,G][DB] [Dd][DA][DB] | [DG]3- [DG]2 |] %26
w: |||
w: sure- ly Some|beam would fall bright- ly on|me! *|
w: |||
V:2
 x | x6 | x6 | x6 | x5 D | x6 | x6 | x6 | x6 | x6 | x6 | x6 | x6 | x6 | x6 | x6 | x5 || x | x6 | %19
 x6 | x6 | x6 | x6 | x6 | x6 | x5 |] %26
V:3
 G, | G,G,G, [C,G,][C,G,][C,G,] | [G,,G,] [G,,D,]4 ([G,,G,]/[G,,G,]/) | %3
 [D,A,][D,G,][D,F,] [D,F,][D,E,][D,F,] | G,3- G,2 [G,B,] | [G,B,][G,A,]G, G,G,G, | %6
 [C,G,] [C,G,]4 ([C,G,]/[C,G,]/) | [D,G,][D,G,][D,G,] [D,F,][D,F,][D,F,] | %8
 [G,,G,]3- [G,,G,]2 G,/G,/ | [C,G,][C,G,][C,G,] [C,G,][C,G,][C,G,] | G, G,4 ([G,D]/[G,D]/) | %11
 [A,D][A,D][A,D] A,A,A, | [D,A,]3- [D,A,]2 [D,A,]/[D,A,]/ | G,G,G, G,G,G, | [C,G,] [C,G,]4 [C,G,] | %15
 [D,G,]D,[D,G,] [D,B,][D,C][D,C] | [G,,B,]3- [G,,B,]2 || G,/G,/ | %18
 [C,G,][C,G,][C,G,] [C,G,][C,G,][C,G,] | G, G,4 ([G,D]/[G,D]/) | [A,D][A,D][A,D] A,A,A, | %21
 [D,A,]3- [D,A,]2 ([D,A,]/[D,A,]/) | G,G,G, G,G,G, | [C,G,] [C,G,]4 [C,G,] | %24
 [D,G,]D,[D,G,] [D,B,][D,C][D,C] | [G,,B,]3- [G,,B,]2 |] %26
V:4
 G, | G,G,G, x3 | x6 | x6 | G,3- G,2 x | x2 G, G,G,G, | x6 | x6 | x5 (G,/G,/) | x6 | G, G,4 x | %11
 x3 A,A,A, | x6 | G,G,G, G,G,G, | x6 | x D, x4 | x5 || (G,/G,/) | x6 | G, G,4 x | x3 A,A,A, | x6 | %22
 G,G,G, G,G,G, | x6 | x D, x4 | x5 |] %26

